assets/images/svg/svg-tooltip.svg

<svg class="tooltip--icon" viewBox="0 0 24 24" xmlns="http://www.w3.org/2000/svg">
  <path d="M12 2C6.48 2 2 6.48 2 12s4.48 10 10 10 10-4.48 10-10S17.52 2 12 2Zm0 18c-4.41 0-8-3.59-8-8s3.59-8 8-8 8 3.59 8 8-3.59 8-8 8Zm-1-4h2v2h-2v-2Zm1.61-9.96c-2.06-.3-3.88.97-4.43 2.79-.18.58.26 1.17.87 1.17h.2c.41 0 .74-.29.88-.67.32-.89 1.27-1.5 2.3-1.28.95.2 1.65 1.13 1.57 2.1-.1 1.34-1.62 1.63-2.45 2.88 0 .01-.01.01-.01.02-.01.02-.02.03-.03.05-.09.15-.18.32-.25.5-.01.03-.03.05-.04.08-.01.02-.01.04-.02.07-.12.34-.2.75-.2 1.25h2c0-.42.11-.77.28-1.07.02-.03.03-.06.05-.09.08-.14.18-.27.28-.39.01-.01.02-.03.03-.04.1-.12.21-.23.33-.34.96-.91 2.26-1.65 1.99-3.56-.24-1.74-1.61-3.21-3.35-3.47Z"/>
</svg>

<svg class="tooltip--icon" viewBox="0 0 24 24" xmlns="http://www.w3.org/2000/svg"><path d="M12 2C6.48 2 2 6.48 2 12C2 17.52 6.48 22 12 22C17.52 22 22 17.52 22 12C22 6.48 17.52 2 12 2ZM12 20C7.59 20 4 16.41 4 12C4 7.59 7.59 4 12 4C16.41 4 20 7.59 20 12C20 16.41 16.41 20 12 20ZM11 16H13V18H11V16ZM12.61 6.04C10.55 5.74 8.73 7.01 8.18 8.83C8 9.41 8.44 10 9.05 10H9.25C9.66 10 9.99 9.71 10.13 9.33C10.45 8.44 11.4 7.83 12.43 8.05C13.38 8.25 14.08 9.18 14 10.15C13.9 11.49 12.38 11.78 11.55 13.03C11.55 13.04 11.54 13.04 11.54 13.05C11.53 13.07 11.52 13.08 11.51 13.1C11.42 13.25 11.33 13.42 11.26 13.6C11.25 13.63 11.23 13.65 11.22 13.68C11.21 13.7 11.21 13.72 11.2 13.75C11.08 14.09 11 14.5 11 15H13C13 14.58 13.11 14.23 13.28 13.93C13.3 13.9 13.31 13.87 13.33 13.84C13.41 13.7 13.51 13.57 13.61 13.45C13.62 13.44 13.63 13.42 13.64 13.41C13.74 13.29 13.85 13.18 13.97 13.07C14.93 12.16 16.23 11.42 15.96 9.51C15.72 7.77 14.35 6.3 12.61 6.04Z"></path></svg>
